tools/download-figma-icons/icons/outlined-medium/gear.svg

<svg width="24" height="24" viewBox="0 0 24 24" fill="none" xmlns="http://www.w3.org/2000/svg">
<path d="M11.9998 16.5002C11.1098 16.5002 10.2397 16.2362 9.49974 15.7418C8.75974 15.2473 8.18297 14.5445 7.84238 13.7223C7.5018 12.9 7.41268 11.9953 7.58631 11.1224C7.75994 10.2495 8.18852 9.44765 8.81784 8.81833C9.44717 8.18901 10.249 7.76043 11.1219 7.5868C11.9948 7.41317 12.8995 7.50229 13.7218 7.84287C14.544 8.18346 15.2468 8.76022 15.7413 9.50023C16.2357 10.2402 16.4997 11.1102 16.4997 12.0002C16.4997 13.1937 16.0256 14.3383 15.1817 15.1822C14.3378 16.0261 13.1932 16.5002 11.9998 16.5002ZM11.9998 9.00031C11.4064 9.00031 10.8264 9.17625 10.3331 9.50589C9.83974 9.83553 9.45523 10.3041 9.22818 10.8522C9.00112 11.4004 8.94171 12.0036 9.05746 12.5855C9.17321 13.1674 9.45893 13.702 9.87848 14.1215C10.298 14.5411 10.8326 14.8268 11.4145 14.9425C11.9964 15.0583 12.5996 14.9989 13.1478 14.7718C13.696 14.5448 14.1645 14.1603 14.4941 13.6669C14.8238 13.1736 14.9997 12.5936 14.9997 12.0002C14.9997 11.2046 14.6836 10.4416 14.121 9.87897C13.5584 9.31637 12.7954 9.00031 11.9998 9.00031Z" fill="black"/>
<path d="M12.9373 23.9998H11.0623C10.6478 23.9994 10.2466 23.8536 9.92867 23.5877C9.61069 23.3218 9.39612 22.9527 9.32236 22.5449L9.13486 21.5099C8.50651 21.3207 7.89854 21.0694 7.3199 20.7599L6.44242 21.3674C6.10205 21.5997 5.69155 21.7065 5.28113 21.6695C4.87072 21.6326 4.48589 21.4542 4.19246 21.1649L2.84999 19.8224C2.56194 19.5283 2.38443 19.1436 2.34753 18.7336C2.31062 18.3235 2.4166 17.9133 2.6475 17.5725L3.32248 16.5975C3.05666 16.0584 2.84077 15.496 2.67749 14.9175L1.45502 14.6925C1.0446 14.6183 0.673574 14.4016 0.407381 14.0805C0.141187 13.7594 -0.00307167 13.3546 4.9608e-05 12.9376V11.0626C0.000458236 10.6481 0.146321 10.2469 0.41221 9.92894C0.678098 9.61097 1.04715 9.3964 1.45502 9.32263L2.84249 9.06764C3.01464 8.57561 3.22789 8.09894 3.47998 7.64267L2.6475 6.43519C2.41521 6.09483 2.3084 5.68433 2.34534 5.27391C2.38227 4.86349 2.56066 4.47866 2.84999 4.18524L4.17746 2.85027C4.47161 2.56222 4.85629 2.38471 5.26633 2.3478C5.67637 2.3109 6.08656 2.41687 6.42742 2.64777L7.72489 3.54775C8.13499 3.33236 8.56128 3.14931 8.99987 3.00026L9.29236 1.4253C9.37326 1.01783 9.5949 0.651795 9.91848 0.391281C10.2421 0.130767 10.647 -0.00762803 11.0623 0.000324601H12.9373C13.3518 0.000733229 13.753 0.146596 14.0709 0.412485C14.3889 0.678373 14.6035 1.04742 14.6773 1.4553L14.9997 3.00026C15.4445 3.14018 15.8782 3.31315 16.2972 3.51775L17.5872 2.61777C17.928 2.38687 18.3382 2.2809 18.7483 2.3178C19.1583 2.35471 19.543 2.53222 19.8371 2.82027L21.1496 4.17774C21.4389 4.47116 21.6173 4.85599 21.6543 5.26641C21.6912 5.67683 21.5844 6.08733 21.3521 6.42769L20.5196 7.62767C20.7717 8.08394 20.985 8.56061 21.1571 9.05264L22.5446 9.30764C22.955 9.38185 23.326 9.59861 23.5922 9.91969C23.8584 10.2408 24.0027 10.6455 23.9996 11.0626V12.9376C23.9992 13.3521 23.8533 13.7533 23.5874 14.0712C23.3215 14.3892 22.9525 14.6038 22.5446 14.6775L21.3221 14.9025C21.1655 15.4832 20.9494 16.0462 20.6771 16.5825L21.3521 17.565C21.5872 17.9043 21.6957 18.3155 21.6587 18.7267C21.6217 19.1378 21.4415 19.523 21.1496 19.8149L19.8221 21.1499C19.528 21.4379 19.1433 21.6155 18.7333 21.6524C18.3232 21.6893 17.913 21.5833 17.5722 21.3524L16.6947 20.7449C16.1181 21.0531 15.5127 21.3043 14.8872 21.4949L14.6923 22.5299C14.6212 22.943 14.4058 23.3176 14.0844 23.5868C13.763 23.856 13.3565 24.0023 12.9373 23.9998ZM7.2899 19.1024C7.43032 19.102 7.56804 19.141 7.68739 19.2149C8.3947 19.6566 9.16641 19.9855 9.97485 20.1899C10.1131 20.2262 10.238 20.3013 10.335 20.4063C10.432 20.5112 10.497 20.6417 10.5223 20.7824L10.7998 22.2824C10.8104 22.3447 10.8424 22.4013 10.8903 22.4424C10.9383 22.4835 10.9992 22.5065 11.0623 22.5074H12.9373C13.0009 22.508 13.0625 22.4856 13.1108 22.4442C13.1591 22.4028 13.1907 22.3453 13.1998 22.2824L13.4773 20.7824C13.5026 20.6417 13.5676 20.5112 13.6646 20.4063C13.7616 20.3013 13.8865 20.2262 14.0248 20.1899C14.8332 19.9855 15.6049 19.6566 16.3122 19.2149C16.4347 19.1343 16.5781 19.0913 16.7247 19.0913C16.8713 19.0913 17.0147 19.1343 17.1372 19.2149L18.4122 20.0924C18.4612 20.1346 18.5237 20.1579 18.5884 20.1579C18.6531 20.1579 18.7157 20.1346 18.7647 20.0924L20.0846 18.7499C20.1242 18.6997 20.1457 18.6376 20.1457 18.5737C20.1457 18.5098 20.1242 18.4477 20.0846 18.3975L19.1547 17.0475C19.0802 16.9283 19.0407 16.7905 19.0407 16.65C19.0407 16.5094 19.0802 16.3717 19.1547 16.2525C19.5369 15.5686 19.8197 14.8337 19.9946 14.07C20.0272 13.9277 20.1006 13.7979 20.2058 13.6966C20.3111 13.5954 20.4436 13.5271 20.5871 13.5L22.2821 13.1926C22.3444 13.1792 22.4004 13.1453 22.4412 13.0964C22.4819 13.0474 22.5052 12.9862 22.5071 12.9226V11.0476C22.5052 10.9839 22.4819 10.9227 22.4412 10.8738C22.4004 10.8249 22.3444 10.791 22.2821 10.7776L20.4446 10.5001C20.3081 10.4753 20.1811 10.4131 20.0779 10.3204C19.9746 10.2277 19.899 10.1082 19.8596 9.97512C19.6603 9.29073 19.3676 8.63709 18.9897 8.03266C18.9106 7.911 18.8685 7.76902 18.8685 7.62392C18.8685 7.47882 18.9106 7.33683 18.9897 7.21518L20.0921 5.62521C20.1317 5.57497 20.1532 5.5129 20.1532 5.44896C20.1532 5.38503 20.1317 5.32296 20.0921 5.27272L18.7497 3.91525C18.7007 3.87301 18.6381 3.84978 18.5734 3.84978C18.5087 3.84978 18.4462 3.87301 18.3972 3.91525L16.7472 5.03272C16.6372 5.10552 16.5099 5.14801 16.3783 5.15591C16.2466 5.16381 16.1151 5.13684 15.9972 5.07772C15.4151 4.7534 14.7955 4.50153 14.1523 4.32774C14.0105 4.29757 13.8805 4.22698 13.778 4.12449C13.6755 4.022 13.6049 3.89201 13.5748 3.75025L13.2073 1.72529C13.1952 1.66239 13.1617 1.60561 13.1124 1.5646C13.0632 1.52359 13.0013 1.50087 12.9373 1.50029H11.0623C10.9986 1.50223 10.9375 1.52544 10.8885 1.56622C10.8396 1.607 10.8057 1.66301 10.7923 1.72529L10.4248 3.75025C10.4001 3.88997 10.3362 4.01982 10.2406 4.12469C10.1451 4.22957 10.0217 4.30518 9.88485 4.34274C9.24465 4.51857 8.62778 4.77035 8.04739 5.09272C7.92819 5.16722 7.79046 5.20672 7.64989 5.20672C7.50933 5.20672 7.3716 5.16722 7.2524 5.09272L5.58744 3.88525C5.54039 3.84203 5.47883 3.81805 5.41494 3.81805C5.35105 3.81805 5.28949 3.84203 5.24244 3.88525L3.91497 5.25022C3.87543 5.30046 3.85394 5.36253 3.85394 5.42646C3.85394 5.4904 3.87543 5.55247 3.91497 5.60271L4.98745 7.17768C5.06653 7.29934 5.10862 7.44132 5.10862 7.58642C5.10862 7.73152 5.06653 7.8735 4.98745 7.99516C4.60956 8.59959 4.3168 9.25323 4.11747 9.93762C4.07807 10.0707 4.00253 10.1902 3.89926 10.2829C3.79598 10.3756 3.66901 10.4378 3.53248 10.4626L1.70251 10.7926C1.64023 10.806 1.58423 10.8399 1.54344 10.8888C1.50266 10.9377 1.47945 10.9989 1.47752 11.0626V12.9376C1.47945 13.0012 1.50266 13.0624 1.54344 13.1114C1.58423 13.1603 1.64023 13.1942 1.70251 13.2076L3.41998 13.5C3.56351 13.5271 3.69604 13.5954 3.80129 13.6966C3.90654 13.7979 3.97993 13.9277 4.01247 14.07C4.1898 14.833 4.47251 15.5675 4.85245 16.2525C4.92695 16.3717 4.96645 16.5094 4.96645 16.65C4.96645 16.7905 4.92695 16.9283 4.85245 17.0475L3.91497 18.3975C3.87543 18.4477 3.85394 18.5098 3.85394 18.5737C3.85394 18.6376 3.87543 18.6997 3.91497 18.7499L5.24994 20.0849C5.29895 20.1271 5.3615 20.1504 5.42619 20.1504C5.49088 20.1504 5.55343 20.1271 5.60244 20.0849L6.87741 19.2074C7.00188 19.1333 7.14515 19.0969 7.2899 19.1024Z" fill="black"/>
</svg>

<svg xmlns="http://www.w3.org/2000/svg" width="24" height="24" fill="none" viewBox="0 0 24 24"><path fill="currentColor" d="M12 16.5a4.5 4.5 0 1 1 0-9 4.5 4.5 0 0 1 0 9M12 9a3 3 0 1 0 0 6 3 3 0 0 0 0-6"/><path fill="currentColor" d="M12.937 24h-1.875a1.77 1.77 0 0 1-1.74-1.455l-.187-1.035a10 10 0 0 1-1.815-.75l-.878.607a1.78 1.78 0 0 1-2.25-.202L2.85 19.822a1.785 1.785 0 0 1-.203-2.25l.675-.974a10 10 0 0 1-.645-1.68l-1.222-.225A1.77 1.77 0 0 1 0 12.938v-1.875a1.77 1.77 0 0 1 1.455-1.74l1.387-.255c.173-.492.386-.97.638-1.425l-.832-1.208a1.78 1.78 0 0 1 .202-2.25L4.177 2.85a1.785 1.785 0 0 1 2.25-.202l1.298.9Q8.34 3.224 9 3l.292-1.575A1.77 1.77 0 0 1 11.062 0h1.875a1.77 1.77 0 0 1 1.74 1.455L15 3q.667.21 1.297.518l1.29-.9a1.785 1.785 0 0 1 2.25.202l1.313 1.358a1.78 1.78 0 0 1 .202 2.25l-.832 1.2q.378.685.637 1.425l1.388.255A1.77 1.77 0 0 1 24 11.063v1.875a1.77 1.77 0 0 1-1.455 1.74l-1.223.224a8.7 8.7 0 0 1-.645 1.68l.675.983a1.76 1.76 0 0 1-.202 2.25l-1.328 1.335a1.785 1.785 0 0 1-2.25.202l-.877-.607q-.867.463-1.808.75l-.195 1.035A1.77 1.77 0 0 1 12.937 24M7.29 19.102c.14 0 .278.039.397.113.708.442 1.48.77 2.288.975a.75.75 0 0 1 .547.592l.278 1.5a.27.27 0 0 0 .262.225h1.875a.263.263 0 0 0 .263-.225l.277-1.5a.75.75 0 0 1 .548-.592 8 8 0 0 0 2.287-.975.75.75 0 0 1 .825 0l1.275.877a.27.27 0 0 0 .353 0l1.32-1.342a.285.285 0 0 0 0-.352l-.93-1.35a.75.75 0 0 1 0-.795 8.3 8.3 0 0 0 .84-2.183.75.75 0 0 1 .592-.57l1.695-.307a.285.285 0 0 0 .225-.27v-1.875a.285.285 0 0 0-.225-.27l-1.837-.278a.75.75 0 0 1-.585-.525 7.8 7.8 0 0 0-.87-1.942.75.75 0 0 1 0-.818l1.102-1.59a.285.285 0 0 0 0-.352L18.75 3.915a.27.27 0 0 0-.353 0l-1.65 1.118a.75.75 0 0 1-.75.045 8.2 8.2 0 0 0-1.845-.75.75.75 0 0 1-.577-.578l-.368-2.025a.28.28 0 0 0-.27-.225h-1.875a.285.285 0 0 0-.27.225l-.367 2.025a.75.75 0 0 1-.54.593 8.3 8.3 0 0 0-1.838.75.75.75 0 0 1-.795 0L5.587 3.885a.255.255 0 0 0-.345 0L3.915 5.25a.285.285 0 0 0 0 .353l1.072 1.575a.75.75 0 0 1 0 .817 7.8 7.8 0 0 0-.87 1.943.75.75 0 0 1-.585.525l-1.83.33a.285.285 0 0 0-.224.27v1.875a.285.285 0 0 0 .225.27l1.717.292a.75.75 0 0 1 .592.57c.178.763.46 1.498.84 2.183a.75.75 0 0 1 0 .794l-.937 1.35a.285.285 0 0 0 0 .353l1.335 1.335a.27.27 0 0 0 .352 0l1.275-.878a.75.75 0 0 1 .413-.105"/></svg>
